X: 2469
T: Ballybrown
R: jig
M: 6/8
K: Gmajor
|:~G3 ABA|GBd edg|edB ABA|GBG AFD|
~G3 ABA|GBd gfg|fga gfd|=cAF G3:|
|:GBd ~g3|afd =cBA|B2d BAG|BdB =cBA|
~G3 ABA|GBd gfg|fga gfd|=cAF G3:|

